packages/assets/static/images/icons/user-plus.svg

<svg width="24" height="24" viewBox="0 0 24 24" xmlns="http://www.w3.org/2000/svg">
<g clip-path="url(#clip0_2001_46617)">
<path d="M24 12.7498C24 12.9488 23.921 13.1395 23.7803 13.2802C23.6397 13.4208 23.4489 13.4998 23.25 13.4998H21.75V14.9998C21.75 15.1988 21.671 15.3895 21.5303 15.5302C21.3897 15.6708 21.1989 15.7498 21 15.7498C20.8011 15.7498 20.6103 15.6708 20.4697 15.5302C20.329 15.3895 20.25 15.1988 20.25 14.9998V13.4998H18.75C18.5511 13.4998 18.3603 13.4208 18.2197 13.2802C18.079 13.1395 18 12.9488 18 12.7498C18 12.5509 18.079 12.3602 18.2197 12.2195C18.3603 12.0789 18.5511 11.9998 18.75 11.9998H20.25V10.4998C20.25 10.3009 20.329 10.1102 20.4697 9.96951C20.6103 9.82886 20.8011 9.74984 21 9.74984C21.1989 9.74984 21.3897 9.82886 21.5303 9.96951C21.671 10.1102 21.75 10.3009 21.75 10.4998V11.9998H23.25C23.4489 11.9998 23.6397 12.0789 23.7803 12.2195C23.921 12.3602 24 12.5509 24 12.7498ZM18.5747 18.267C18.7027 18.4194 18.765 18.6165 18.7478 18.8148C18.7305 19.0131 18.6352 19.1965 18.4828 19.3245C18.3304 19.4526 18.1334 19.5148 17.935 19.4976C17.7367 19.4804 17.5534 19.3851 17.4253 19.2327C15.5391 16.9864 12.9459 15.7498 10.125 15.7498C7.30406 15.7498 4.71094 16.9864 2.82469 19.2327C2.69664 19.3849 2.51334 19.4801 2.3151 19.4973C2.11687 19.5144 1.91995 19.4521 1.76766 19.3241C1.61536 19.196 1.52018 19.0127 1.50304 18.8145C1.48589 18.6162 1.5482 18.4193 1.67625 18.267C3.07688 16.6002 4.81875 15.4161 6.75469 14.7823C5.57897 14.0501 4.67374 12.9548 4.17594 11.6622C3.67814 10.3697 3.61486 8.95013 3.99567 7.61839C4.37649 6.28666 5.18067 5.11518 6.28657 4.2812C7.39246 3.44721 8.73989 2.99609 10.125 2.99609C11.5101 2.99609 12.8575 3.44721 13.9634 4.2812C15.0693 5.11518 15.8735 6.28666 16.2543 7.61839C16.6351 8.95013 16.5719 10.3697 16.0741 11.6622C15.5763 12.9548 14.671 14.0501 13.4953 14.7823C15.4312 15.4161 17.1731 16.6002 18.5747 18.267ZM10.125 14.2498C11.0892 14.2498 12.0317 13.9639 12.8334 13.4283C13.6351 12.8926 14.2599 12.1312 14.6289 11.2404C14.9979 10.3496 15.0944 9.36943 14.9063 8.42378C14.7182 7.47812 14.2539 6.60948 13.5721 5.9277C12.8904 5.24592 12.0217 4.78162 11.0761 4.59351C10.1304 4.40541 9.15021 4.50195 8.25942 4.87093C7.36863 5.23991 6.60726 5.86475 6.07159 6.66644C5.53591 7.46813 5.25 8.41066 5.25 9.37484C5.25149 10.6673 5.76558 11.9064 6.6795 12.8203C7.59342 13.7343 8.83253 14.2484 10.125 14.2498Z"/>
</g>
<defs>
<clipPath id="clip0_2001_46617">
<rect width="24" height="24"/>
</clipPath>
</defs>
</svg>

<svg viewBox="0 0 24 24" xmlns="http://www.w3.org/2000/svg" aria-hidden="true" fill="currentColor"><g clip-path="url(#a)"><path d="M24 12.75a.75.75 0 0 1-.75.75h-1.5V15a.75.75 0 1 1-1.5 0v-1.5h-1.5a.75.75 0 1 1 0-1.5h1.5v-1.5a.75.75 0 1 1 1.5 0V12h1.5a.75.75 0 0 1 .75.75m-5.425 5.517a.751.751 0 0 1-1.15.966c-1.886-2.247-4.48-3.483-7.3-3.483s-5.414 1.236-7.3 3.483a.75.75 0 0 1-1.149-.966c1.4-1.667 3.143-2.85 5.079-3.485a6.374 6.374 0 1 1 6.74 0c1.936.634 3.678 1.818 5.08 3.485m-8.45-4.017a4.875 4.875 0 1 0 0-9.751 4.875 4.875 0 0 0 0 9.75"/></g><defs><clipPath id="a"><path d="M0 0h24v24H0z"/></clipPath></defs></svg>
